public/icons/ide.svg

<svg width="46" height="47" viewBox="0 0 46 47" fill="none" xmlns="http://www.w3.org/2000/svg">
<path d="M40.25 11.8333V15.6666H5.75V11.8333H40.25ZM5.75 34.8333H23V31H5.75V34.8333ZM5.75 25.25H40.25V21.4166H5.75V25.25Z" fill="#FE0072"/>
</svg>

<svg width="46" height="47" fill="none" xmlns="http://www.w3.org/2000/svg"><path d="M40.25 11.833v3.834H5.75v-3.834h34.5Zm-34.5 23H23V31H5.75v3.833Zm0-9.583h34.5v-3.833H5.75v3.833Z" fill="#FE0072"/></svg>
